!!!OTL: AUF DIESER WELT HAB ICH KEIN FREUD
!!!ARE: Europa, Mitteleuropa, Deutschland, Hessen, Wetterau; Odenwald
!!!SCT: E0569A
!!!YEM: Copyright 1995, estate of Helmut Schaffrath.
**kern
*ICvox
*Ivox
*M3/4
*k[b-e-]
*B-:
{4f
=1
8b-
16a
16g
4f
4g
=2
8f
16f
16e-
8d}
{8f
8b-
8cc
=3
8dd
8ff
4ff
8ee-
8ff
=4
4dd
8r}
{8b-
8a
8b-
=5
8.cc
16cc
8cc}
{16dd
16cc
8b-
8cc
=6
8.dd
16dd
8dd}
{8f
8b-
8dd
=7
4ff
4ff
8ee-
8ff
=8
4dd
8r}
{8b-
8a
8b-
=9
8.cc
16cc
8cc}
{16dd
16cc
8b-
8cc
=10
8.dd
16dd
8dd}
{8f
8b-
8dd
=11
4ff
4ff
8ee-
8ff
=12
4dd
4r}
==
!!!AGN: Liebes - Lied, Trennung
!!!ONB: ESAC (Essen Associative Code) Database: ERK1
!!!AMT: simple triple
!!!AIN: vox
!!!EED: Helmut Schaffrath
!!!EEV: 1.0
*-
